!!!OTL: Graf und Nonne (Die Nonne) Du hast alleweil gsagt, du nimmst mich,
!!!ARE: Europa, Osteuropa, Ungarn
!!!YOR: 8, S. 288
!!    ???? aufgezeichnet
!!!SCT: Q01557
!!!YEM: Copyright 1995, estate of Helmut Schaffrath.
**kern
*ICvox
*Ivox
!! Mixed meters:  2/4; 3/4
*M3/4
*k[f#]
*G:
{8d
8d
=1
16g
16g
8g
8f#
8e
=2
8e
8d
8d}
{8d
=3
8g
8g
8a
8cc
=4
2b}
=5
{8d
8d
=6
16g
16g
8g
8f#
8e
=7
8e
8d
8d}
{8d
=8
8g
8g
8a
8cc
=9
2b
8r}
{8b
=10
*M2/4
8.b
16b
8b
8b
=11
8b
8dd
8cc}
{8b
=12
8.a
16g
8f#
8e
=13
8d
8cc
8b}
{8a
=14
8g
8g
8a
8f#
=15
4g
8r}
{8b
=16
8.b
16b
8b
8b
=17
8b
8dd
8cc}
{8b
=18
8.a
16g
8f#
8e
=19
8d
8cc
8b}
{8a
=20
8g
8g
8a
8f#
=21
4g}
==
!!!AGN: Ballade, Standesunterschied, vergebliche Werbung, Liebes - Lied
!! Schlusspause gestrichen.
!!!ONB: ESAC (Essen Associative Code) Database: BALLADE
!!!AMT: irregular
!!!AIN: vox
!!!EED: Helmut Schaffrath
!!!EEV: 1.0
*-
